img/svgicons/locked.svg

<svg width="19" height="19" viewBox="0 0 19 19" fill="none" xmlns="http://www.w3.org/2000/svg">
<path d="M15.1301 7.0768V5.10185C15.1301 2.2888 12.6045 0 9.50051 0C6.39647 0 3.87088 2.2888 3.87088 5.10185V7.0768C2.67423 7.28298 1.75977 8.32587 1.75977 9.58093V16.4568C1.75977 17.8589 2.90082 19 4.3033 19H14.6977C16.1002 19 17.2412 17.8589 17.2412 16.4565V9.58057C17.2412 8.32587 16.3268 7.28298 15.1301 7.0768ZM4.57458 5.10185C4.57458 2.67654 6.78421 0.703704 9.50051 0.703704C12.2168 0.703704 14.4264 2.67654 14.4264 5.10185V7.03704H4.57458V5.10185ZM10.9079 13.3704C10.9079 14.1466 10.2767 14.7778 9.50051 14.7778C8.72432 14.7778 8.0931 14.1466 8.0931 13.3704V11.2593C8.0931 10.4831 8.72432 9.85185 9.50051 9.85185C10.2767 9.85185 10.9079 10.4831 10.9079 11.2593V13.3704Z" fill="#337D5A"/>
</svg>

<svg width="19" height="19" fill="none" xmlns="http://www.w3.org/2000/svg"><path d="M15.13 7.077V5.102C15.13 2.289 12.604 0 9.5 0S3.87 2.289 3.87 5.102v1.975A2.546 2.546 0 0 0 1.76 9.58v6.876A2.546 2.546 0 0 0 4.303 19h10.395a2.546 2.546 0 0 0 2.543-2.544V9.581a2.546 2.546 0 0 0-2.11-2.504ZM4.575 5.102C4.575 2.677 6.785.704 9.5.704s4.925 1.973 4.925 4.398v1.935H4.575V5.102Zm6.333 8.268c0 .777-.631 1.408-1.407 1.408a1.409 1.409 0 0 1-1.408-1.408v-2.11a1.409 1.409 0 0 1 2.815 0v2.11Z" fill="#337D5A"/></svg>
